X:1
T:Frustra, Rex ferro
T:Daniel Friderici
T:Source : Bicinia sacra---Rostock---J.Richelius---1642. Editor : André Vierendeels (30/06/17).
T:Notes : Original clefs : C1, C1 Editorial accidentals above the staff 
T:Frustra, Rex ferro
T:©
T:©
C:Daniel Friderici
Z:©
%%score [ 1 2 ]
L:1/8
Q:1/4=120
M:2/2
K:C
V:1 treble nm="Soprano 1" snm="S 1"
V:2 treble nm="Soprano 2" snm="S 2"
V:1
 d4 B4 | z8 | e4 d2 c2- | c2 B2 e4 | d4 z2 A2 | B2 c2 d4 | G2 A2 B2 c2 | d4 c2 B2 | c3 c B4 | %9
w: Fru- stra,||fru- stra, fru-|* stra, fru-|stra, Rex|fer- ro ten-|tat, Rex fer- ro|ten- tat, cu-|na bu- la|
 A2 G2 A4 | G4 D4 | G3 G A4 | BABc d2 cB | A2 G4 ^F2 | G8 :: B2 B2 B4 | ^c2 c2 c4 | d2 d2 d2 d2 | %18
w: Chri- * *|sti, cu-|na- bu- la|Chri- * * * * * *||sti:|Nil a- git,|nil a- git,|nil a- git in|
 e4 d2 d2 | c4 B4 | z2 d2 c2 B2 | A2 G2 z2 d2 | c2 B2 A2 G2 | z2 d2 D3 E | ^F2 G2 A2 B2 | %25
w: sum- mum, in|sum- mum,|qui ca- pit|ar- ma, qui|ca- pit ar- ma,|qui ca- pit|ar- ma De- um,|
 z2 d2 D3 E | ^F2 G2 A2 B2 | z2 c2 B2 e2 | A2 Bc d2 B2 | A2 G4 ^F2 | G8 :| %31
w: qui ca- pit|ar- ma De- um,|qui ca- pit|ar- * * * ma|DE- * *|UM.|
V:2
 z8 | d4 B4 | c4 B2 e2- | e2 d2 c4 | B2 G2 B2 c2 | d4 B2 G2 | B2 c2 d4 | B4 G4 | A3 A G4 | %9
w: |Fru- stra,|fru- stra, fru-|* stra, fru-|stra, Rex fer- ro|ten- tat, Rex|fer- ro ten-|tat, cu-|na- bu- la|
 ^F2 G4 F2 | G4 A4 | B3 B c4 | G3 A B2 AG | A2 B2 A4 | G8 :: G2 G2 G4 | A2 A2 A4 | B2 B2 B2 B2 | %18
w: Chri- * *|sti, cu-|na- bu- la|Chri- * * * *||sti:|Nil a- git,|nil a- git,|nil a- git in|
 B2 c4 B2 | e4 d2 d2 | c2 B2 A2 G2 | z2 d2 c2 B2 | A2 G2 z2 d2 | D3 E ^F2 G2 | A2 B2 z2 d2 | %25
w: sum- mum, in|sum- mum, qui|ca- pit ar- ma,|qui ca- pit|ar- ma, qui|ca- pit ar- ma|De- um, qui|
 D3 E ^F2 G2 | A2 B2 z2 d2 | e4 d2 c2- | c2 BA G2 G2 | ^F2 G2 A4 | G8 :| %31
w: ca- pit ar- ma|De- um, qui|ca- pit ar-|* * * * ma|DE- * *|UM.|

